images/mMSFT.svg

<svg height="250" viewBox="0 0 250 250" width="250" xmlns="http://www.w3.org/2000/svg" xmlns:xlink="http://www.w3.org/1999/xlink"><filter id="a" height="100%" width="100%" x="0%" y="0%"><feColorMatrix in="SourceGraphic" type="matrix" values="0 0 0 0 1 0 0 0 0 1 0 0 0 0 1 0 0 0 1 0"/></filter><mask id="b"><g filter="url(#a)"><image height="250" width="250" xlink:href="data:image/png;base64,iVBORw0KGgoAAAANSUhEUgAAAPoAAAD6CAYAAACI7Fo9AAAABmJLR0QA/wD/AP+gvaeTAAAB7klEQVR4nO3ToW0DARAAwXNkZIWlkaCUbuqWzMIs8+fJSb8zFSzZGQAAAAAAAAAAAAAAAAAAAAAAAAAAAAAAAAAAAAAAAAAAAAAAAAAAAAAAAAAAAAAAAAAAAAAAAAAAAAAAAAAAAAAAAAAAAAAAAAAAAAAAAAAAAAAAAAAAAAAAAAAAAAAAAAAAAAAAAAAAAAAAAAAAAAAAAAAAAAAAAAAAAACAZZftgIOvmfnejjihx8y8tiPYc90OOPiZmft2xAndZuZ3O4I9H9sBwN8zOgQYHQKMDgFGhwCjQ4DRIcDoEGB0CDA6BBgdAowOAUaHAKNDgNEhwOgQYHQIMDoEGB0CjA4BRocAo0OA0SHA6BBgdAgwOgQYHQKMDgFGhwCjQ4DRIcDoEGB0CDA6BBgdAowOAUaHAKNDgNEhwOgQYHQIMDoEGB0CjA4BRocAo0OA0SHA6BBgdAgwOgQYHQKMDgFGhwCjQ4DRIcDoEGB0CDA6BBgdAowOAUaHAKNDgNEhwOgQYHQIMDoEGB0CjA4BRocAo0OA0SHA6BBgdAgwOgQYHQKMDgFGhwCjQ4DRIcDoEGB0CDA6BBgdAowOAZftgIPrzHxuR5zQczsAAAAAAAAAAAAAAAAAAAAAAAAAAAAAAAAAAAAAAAAAAACA//IG3h8FnK0uhE8AAAAASUVORK5CYII="/></g></mask><clipPath id="c"><path d="m0 0h250v250h-250z"/></clipPath><g fill-rule="evenodd"><path d="m35.714844 35.714844h85.316406c-.003906 28.4375 0 56.878906-.003906 85.316406h-85.3125zm0 0" fill="#f25022"/><path d="m215.0625 215.0625v-85.320312c-28.441406 0-56.878906-.003907-85.3125.007812-.011719 28.433594 0 56.871094-.007812 85.3125h-8.710938c0-28.441406.007812-56.875 0-85.3125-28.4375-.015625-56.878906 0-85.316406-.011719v-8.707031h85.3125c.003906-28.4375 0-56.878906.003906-85.316406h8.710938c0 28.4375-.003907 56.878906.007812 85.316406 28.433594 0 56.871094-.003906 85.308594 0 .007812-28.4375.003906-56.878906.003906-85.316406" fill="#fefefe"/><path d="m129.742188 35.714844h85.320312c0 28.4375.003906 56.878906-.003906 85.316406-28.4375-.003906-56.875 0-85.308594 0-.011719-28.4375-.007812-56.878906-.007812-85.316406" fill="#80ba01"/></g><g clip-path="url(#c)" mask="url(#b)"><path d="m35.714844 129.738281c28.4375.011719 56.878906-.003906 85.316406.011719.007812 28.4375 0 56.871094 0 85.3125h-85.316406zm0 0" fill="#02a4ef" fill-rule="evenodd"/></g><path d="m129.75 129.75c28.433594-.011719 56.871094-.007812 85.3125-.007812v85.320312h-85.320312c.007812-28.441406-.003907-56.878906.007812-85.3125" fill="#ffb902" fill-rule="evenodd"/></svg>

<svg xmlns="http://www.w3.org/2000/svg" xmlns:xlink="http://www.w3.org/1999/xlink" width="250px" height="250px" viewBox="0 0 250 250" version="1.1">
<defs>
<filter id="alpha" filterUnits="objectBoundingBox" x="0%" y="0%" width="100%" height="100%">
  <feColorMatrix type="matrix" in="SourceGraphic" values="0 0 0 0 1 0 0 0 0 1 0 0 0 0 1 0 0 0 1 0"/>
</filter>
<image id="image8" width="250" height="250" xlink:href="data:image/png;base64,iVBORw0KGgoAAAANSUhEUgAAAPoAAAD6CAYAAACI7Fo9AAAABmJLR0QA/wD/AP+gvaeTAAAB7klEQVR4nO3ToW0DARAAwXNkZIWlkaCUbuqWzMIs8+fJSb8zFSzZGQAAAAAAAAAAAAAAAAAAAAAAAAAAAAAAAAAAAAAAAAAAAAAAAAAAAAAAAAAAAAAAAAAAAAAAAAAAAAAAAAAAAAAAAAAAAAAAAAAAAAAAAAAAAAAAAAAAAAAAAAAAAAAAAAAAAAAAAAAAAAAAAAAAAAAAAAAAAAAAAAAAAACAZZftgIOvmfnejjihx8y8tiPYc90OOPiZmft2xAndZuZ3O4I9H9sBwN8zOgQYHQKMDgFGhwCjQ4DRIcDoEGB0CDA6BBgdAowOAUaHAKNDgNEhwOgQYHQIMDoEGB0CjA4BRocAo0OA0SHA6BBgdAgwOgQYHQKMDgFGhwCjQ4DRIcDoEGB0CDA6BBgdAowOAUaHAKNDgNEhwOgQYHQIMDoEGB0CjA4BRocAo0OA0SHA6BBgdAgwOgQYHQKMDgFGhwCjQ4DRIcDoEGB0CDA6BBgdAowOAUaHAKNDgNEhwOgQYHQIMDoEGB0CjA4BRocAo0OA0SHA6BBgdAgwOgQYHQKMDgFGhwCjQ4DRIcDoEGB0CDA6BBgdAowOAZftgIPrzHxuR5zQczsAAAAAAAAAAAAAAAAAAAAAAAAAAAAAAAAAAAAAAAAAAACA//IG3h8FnK0uhE8AAAAASUVORK5CYII="/>
<mask id="mask0">
  <g filter="url(#alpha)">
<use xlink:href="#image8"/>
  </g>
</mask>
<clipPath id="clip1">
  <rect x="0" y="0" width="250" height="250"/>
</clipPath>
<g id="surface7" clip-path="url(#clip1)">
<path style=" stroke:none;fill-rule:evenodd;fill:rgb(0.784314%,64.313728%,93.725491%);fill-opacity:1;" d="M 35.714844 129.738281 C 64.152344 129.75 92.59375 129.734375 121.03125 129.75 C 121.039062 158.1875 121.03125 186.621094 121.03125 215.0625 L 35.714844 215.0625 Z M 35.714844 129.738281 "/>
</g>
</defs>
<g id="surface1">
<path style=" stroke:none;fill-rule:evenodd;fill:rgb(94.901961%,31.37255%,13.333334%);fill-opacity:1;" d="M 35.714844 35.714844 L 121.03125 35.714844 C 121.027344 64.152344 121.03125 92.59375 121.027344 121.03125 L 35.714844 121.03125 Z M 35.714844 35.714844 "/>
<path style=" stroke:none;fill-rule:evenodd;fill:rgb(99.607843%,99.607843%,99.607843%);fill-opacity:1;" d="M 215.0625 215.0625 L 215.0625 129.742188 C 186.621094 129.742188 158.183594 129.738281 129.75 129.75 C 129.738281 158.183594 129.75 186.621094 129.742188 215.0625 L 121.03125 215.0625 C 121.03125 186.621094 121.039062 158.1875 121.03125 129.75 C 92.59375 129.734375 64.152344 129.75 35.714844 129.738281 L 35.714844 121.03125 L 121.027344 121.03125 C 121.03125 92.59375 121.027344 64.152344 121.03125 35.714844 L 129.742188 35.714844 C 129.742188 64.152344 129.738281 92.59375 129.75 121.03125 C 158.183594 121.03125 186.621094 121.027344 215.058594 121.03125 C 215.066406 92.59375 215.0625 64.152344 215.0625 35.714844 "/>
<path style=" stroke:none;fill-rule:evenodd;fill:rgb(50.196081%,72.941178%,0.392157%);fill-opacity:1;" d="M 129.742188 35.714844 L 215.0625 35.714844 C 215.0625 64.152344 215.066406 92.59375 215.058594 121.03125 C 186.621094 121.027344 158.183594 121.03125 129.75 121.03125 C 129.738281 92.59375 129.742188 64.152344 129.742188 35.714844 "/>
<use xlink:href="#surface7" mask="url(#mask0)"/>
<path style=" stroke:none;fill-rule:evenodd;fill:rgb(100%,72.549021%,0.784314%);fill-opacity:1;" d="M 129.75 129.75 C 158.183594 129.738281 186.621094 129.742188 215.0625 129.742188 L 215.0625 215.0625 L 129.742188 215.0625 C 129.75 186.621094 129.738281 158.183594 129.75 129.75 "/>
</g>
</svg>
